www/assets/icons/vertical_split.svg

<svg xmlns="http://www.w3.org/2000/svg" width="24" height="24" viewBox="0 0 24 24" fill='currentColor'><path d="M3 15h8v-2H3zm0 4h8v-2H3zm0-8h8V9H3zm0-6v2h8V5zm10 0h8v14h-8z"/></svg>

<svg width="24" height="24" viewBox="0 0 24 24" xmlns="http://www.w3.org/2000/svg" fill='currentColor'><path d="M3 15H11V13H3V15ZM3 19H11V17H3V19ZM3 11H11V9H3V11ZM3 5V7H11V5H3ZM13 5H21V19H13V5Z"/></svg>
